src/svg/uf219-diamond.svg

<!-- Generated by IcoMoon.io -->
<svg version="1.1" xmlns="http://www.w3.org/2000/svg" width="37" height="32" viewBox="0 0 37 32">
<path d="M3.786 13.714l11.125 11.875-5.357-11.875h-5.768zM18.286 27.5l6.232-13.786h-12.464zM9.607 11.429l3.643-6.857h-4.679l-5.143 6.857h6.179zM21.661 25.589l11.125-11.875h-5.768zM12.196 11.429h12.179l-3.643-6.857h-4.893zM26.964 11.429h6.179l-5.143-6.857h-4.679zM29.482 2.75l6.857 9.143c0.339 0.429 0.304 1.054-0.071 1.464l-17.143 18.286c-0.214 0.232-0.518 0.357-0.839 0.357s-0.625-0.125-0.839-0.357l-17.143-18.286c-0.375-0.411-0.411-1.036-0.071-1.464l6.857-9.143c0.214-0.304 0.554-0.464 0.911-0.464h20.571c0.357 0 0.696 0.161 0.911 0.464z"></path>
</svg>

<svg xmlns="http://www.w3.org/2000/svg" width="37" height="32"><path d="M3.786 13.714l11.125 11.875-5.357-11.875H3.786zm14.5 13.786l6.232-13.786H12.054zM9.607 11.429l3.643-6.857H8.571l-5.143 6.857h6.179zm12.054 14.16l11.125-11.875h-5.768zm-9.465-14.16h12.179l-3.643-6.857h-4.893zm14.768 0h6.179L28 4.572h-4.679zm2.518-8.679l6.857 9.143c.339.429.304 1.054-.071 1.464L19.125 31.643c-.214.232-.518.357-.839.357s-.625-.125-.839-.357L.304 13.357c-.375-.411-.411-1.036-.071-1.464L7.09 2.75a1.1 1.1 0 0 1 .911-.464h20.571c.357 0 .696.161.911.464z"/></svg>
